X: 704
T: Pretty Peggy
C: anon.
O: Ireland
B: Francis O'Neill: "The Dance Music of Ireland" (1907) no. 704
R: Reel
Z: Transcribed by Frank Nordberg - http://www.musicaviva.com
F: http://www.musicaviva.com/abc/tunes/ireland/oneill-1001/oneill-1001-070
4.abc
M: C|
L: 1/8
K: D
A|d2(fd) AFED|d2(fd) egfe|d2fd AFDF|GBFA EDCE|d2(fd) AFED|
d2(fd) egfe|(3fga (3gec (3dcB (3ABG|FDED (A,D)D||A|(3FED (AD) BDAD|(3FED
(AD) CEEG|
(3FED (AD) BDAD|(3GFE FD A,DDA|(3FED (dD) cDBD|AD (3FED CEEG|FAdf ecdB|AF
GE (FD)D|]
W:
W:
W: From Musica Viva - http://www.musicaviva.com
W: the Internet center for free sheet music downloads.


